!!!COM: Mozart, Wolfgang Amadeus
!!!OTL: String Quartet No. 16 in E-flat Major
!!!OMD: Menuetto
!!!OMV: 3
!!!SCT1: K<sup>1</sup> 428
!!!SCA: Chronologisch-thematisches Verzeichnis sämtlicher Tonwerke Wolfgang Amade Mozarts (L. von Köchel; 1862, 2/1905, 3/1937, 1947)
!!!SCT2: K<sup>6</sup> 421b
!!!YOR: Breitkopf & Härtel Edition
!!!ENC: Frances Bennion
!!!CDT: 1756/1/27/-1791/12/5/
!!!OCY: Österreich
!!!YEC: Copyright (c) 1994, 2000 Center for Computer Assisted Research in the Humanities
!!!YEM: Rights to all derivative editions reserved.
!!!YEM: Refer to licensing agreement for further details.
!!!YEN: United States of America
**kern	**kern	**kern	**kern
*k[b-e-a-]	*k[b-e-a-]	*k[b-e-a-]	*k[b-e-a-]
*E-:	*E-:	*E-:	*E-:
*clefC	*clefF	*clefG	*clefG
*M3/4	*M3/4	*M3/4	*M3/4
2r	2r	2r	2r
4r	4r	4r	4ee-
=1	=1	=1	=1
2GG	2G	2B-	2e- 2G
4r	4r	4r	4ee-
=2	=2	=2	=2
2AA-	2A-	2e- 2c	2f 2A-
4r	4r	4r	8cc
.	.	.	8b-
=3	=3	=3	=3
2.r	2.r	2.r	8b-
.	.	.	8a-
.	.	.	8a-
.	.	.	8g
.	.	.	8a-
.	.	.	8g
=4	=4	=4	=4
2.r	2.r	2.r	8g
.	.	.	8f
.	.	.	8f
.	.	.	8e-
.	.	.	8f
.	.	.	8e-
=5	=5	=5	=5
2BB-	2A-	2f	8e-
.	.	.	8d
.	.	.	8d
.	.	.	8f
4D	8F	4B-	8a-
.	8A-	.	8f
=6	=6	=6	=6
2E-	8A-	2B-	8f
.	8B-	.	8g
.	4G	.	4e-
4r	4r	4r	4ee-
=7	=7	=7	=7
2C	2E-	2c	2e- 2G
4r	4r	4r	4ee-
=8	=8	=8	=8
[2.FF	2F	2A	2e- 2c
.	4r	8ee-	8gg
.	.	8dd	8ff
=9	=9	=9	=9
2.FF_	2r	8dd	8ff
.	.	8cc	8ee-
.	.	8cc	8ee-
.	.	8b-	8dd
.	8g	8cc	8ee-
.	8f	8b-	8dd
=10	=10	=10	=10
2.FF]	8f	8b-	8dd
.	8e-	8a	8cc
.	8e-	8a	8cc
.	8d	8b-	8b-
.	8e-	8a	8cc
.	8d	8b-	8b-
=11	=11	=11	=11
4F	8c	8e-	4a
.	8B-	8d	.
2r	8A	8c	4ff
.	8B-	8d	.
.	8c	8e-	4ff
.	8A	8c	.
=12	=12	=12	=12
4BB-	8B-	8d	8.ff
.	8c	8e-	.
.	.	.	32gg
.	.	.	32aa
2r	8d	8f	4bb-
.	8c	8e-	.
.	8d	8f	8.b-
.	8B-	8d	.
.	.	.	16dd
=13	=13	=13	=13
4FF	8A	8c	4ff
.	8B-	8d	.
2r	8c	8e-	4ff
.	8B-	8d	.
.	8c	8e-	4ff
.	8A	8c	.
=14	=14	=14	=14
4BB-	8B-	8d	8.ff
.	8c	8e-	.
.	.	.	32gg
.	.	.	32aa
4r	8d	8f	4bb-
.	8c	8e-	.
4G	8B-	8d	8.b-
.	8G	8B-	.
.	.	.	16dd
=15	=15	=15	=15
4E-	8e-	8g	8.cc
.	8d	8f	.
.	.	.	32ee-
.	.	.	32ff
4r	8c	8e-	4gg
.	8B-	8d	.
4F	8c	8e-	8.a
.	8A	8e-	.
.	.	.	16cc
=16	=16	=16	=16
[2.BB-	8B-	4d	4.b-
.	8f	.	.
.	8d	2r	.
.	8A	.	8cc
.	8B-	.	8dd
.	8c	.	8ee-
=17	=17	=17	=17
2.BB-_	[2.d [2.B-	[2.b- [2.f	8ff
.	.	.	8bb-
.	.	.	8ff
.	.	.	8ee-
.	.	.	8dd
.	.	.	8ee-
=18	=18	=18	=18
2.BB-_	2.d_ 2.B-_	2.b-_ 2.f_	8ff
.	.	.	8bb-
.	.	.	8ff
.	.	.	8ee-
.	.	.	8dd
.	.	.	8ee-
=19	=19	=19	=19
2.BB-_	2.d_ 2.B-_	2.b-_ 2.f_	8ff
.	.	.	8bb-
.	.	.	8ff
.	.	.	8ee-
.	.	.	8dd
.	.	.	8ee-
=20	=20	=20	=20
4BB-]	4d] 4B-]	4b-] 4f]	8ff
.	.	.	8bb-
2r	8g	8b-	8bb-
.	8f	8a	8aa
.	8e-	8g	8gg
.	8d	8f	8ff
=21	=21	=21	=21
4E-	8d	8f	8ff
.	8c	8e-	8ee-
4F	4B-	4d	4dd
4FF	4A	4c	4cc
=22	=22	=22	=22
4BB-	4B-	4B-	8cc
.	.	.	8b-
4r	4r	4r	8b-
.	.	.	8b-
4D	4d	4f	8b-
.	.	.	8b-
=23	=23	=23	=23
4E-	4c	4g	8b-
.	.	.	8cc
4r	4r	4r	8cc
.	.	.	8cc
4F	4e-	4a	8cc
.	.	.	8dd
=24	=24	=24	=24
4G	8d	8b-	8cc
.	8D	8B-	8b-
4r	8D	8B-	4b-
.	8D	8B-	.
4GG	8D	8B-	4r
.	8D	8B-	.
=25	=25	=25	=25
4FF	8D	8B-	2.r
.	8F	8c	.
4r	8F	8c	.
.	8F	8c	.
4FF	8F	8c	.
.	8F	8d	.
=26	=26	=26	=26
4BB-	4D	4B-	2.r
4B-	2r	2r	.
4r	.	.	.
=27	=27	=27	=27
8G	8B-	8e-	8b-
8r	8r	8r	8r
8E-	8B-	8g	8ee-
8r	8r	8r	8r
8G	8e-	8e-	8b-
8r	8r	8r	8r
=28	=28	=28	=28
8A-	8c	8e-	8cc
8r	8r	8r	8r
8G	8B-	8e-	8ee-
4.r	4.r	4.r	4.r
=29	=29	=29	=29
8A-	8c	8e-	8cc
8r	8r	8r	8r
8F	8B-	8d	8a-
8r	8r	8r	8r
8E-	8B-	8e-	8g
8r	8r	8r	8r
=30	=30	=30	=30
8D	8B-	8f	8f
8r	8r	8r	8r
8BB-	8F	8d	8b-
4.r	4.r	4.r	4.r
=31	=31	=31	=31
8EE-	8B-	8e-	8g
8r	8r	8r	8r
8AA-	8A-	8c	8e-
8r	8r	8r	8r
8FF	8c	8f	8a-
8r	8r	8r	8r
=32	=32	=32	=32
8BB-	8B-	8d	8f
8r	8r	8r	8r
8GG	8d	8g	8b-
8r	8r	8r	8r
8C	8c	8e-	8g
8r	8r	8r	8r
=33	=33	=33	=33
8AA-	8c	8e-	8cc
8r	8r	8r	8r
8FF	8B-	8d	8a-
8r	8r	8r	8r
8EE-	8B-	8e-	8g
8r	8r	8r	8r
=34	=34	=34	=34
4BB-	8B-	4d	8f
.	8d	.	8f
2r	8e-	4r	8g
.	8f	.	8a-
.	8g	4bb-	8b-
.	8e-	.	8g
=35	=35	=35	=35
2.r	8d	2b-	8f
.	8d	.	8f
.	8e-	.	8g
.	8f	.	8a-
.	8g	4bb-	8b-
.	8e-	.	8g
=36	=36	=36	=36
2.r	2d	2b-	2f
.	4r	4r	4ee-
=37	=37	=37	=37
2GG	2G	2B-	2e- 2G
4r	4r	4r	4ee-
=38	=38	=38	=38
2AA-	2A-	2e- 2c	2f 2A-
4r	4r	4r	8cc
.	.	.	8b-
=39	=39	=39	=39
2.r	2r	2.r	8b-
.	.	.	8a-
.	.	.	8a-
.	.	.	8g
.	8c	.	8a-
.	8B-	.	8g
=40	=40	=40	=40
2.r	8B-	2.r	8g
.	8A-	.	8f
.	8A-	.	8f
.	8G	.	8e-
.	8A-	.	8f
.	8G	.	8e-
=41	=41	=41	=41
2.BB-	8G	[2.A-	8e-
.	8F	.	8d
.	8F	.	8d
.	8D	.	8f
.	8F	.	8a-
.	8D	.	8f
=42	=42	=42	=42
2EE-	8D	8A-]	8f
.	8E-	8G	8g
.	4G	4B-	4e-
4r	4r	4r	4ee-
=43	=43	=43	=43
2GG	2B- 2E-	2d-	2e- 2G
4r	4r	4r	4ee-
=44	=44	=44	=44
2AA-	2A- 2E-	2c	2e- 2A-
4r	4r	4r	4ff
=45	=45	=45	=45
2AA	2A	2e- 2c	2f 2A
4r	4r	4r	4gg
=46	=46	=46	=46
[2.BB-	[2.B-	2e- 2G	2g 2B-
.	.	[4g	[4b-
=47	=47	=47	=47
2.BB-]	2B-]	4g]	4b-]
.	.	4f	4a-
.	4A-	4d	4f
=48	=48	=48	=48
4E-	8G	8e-	4e-
.	8G	8B-	.
2r	8E-	8G	4r
.	8F	8A-	.
.	8G	8B-	8.e-
.	8E-	8G	.
.	.	.	16g
=49	=49	=49	=49
4BB-	8A-	8f	4b-
.	8G	8e-	.
2r	8F	8d	4b-
.	8G	8e-	.
.	8A-	8f	4b-
.	8F	8d	.
=50	=50	=50	=50
4E-	8G	8e-	8.b-
.	8A-	8f	.
.	.	.	32cc
.	.	.	32dd
2r	8B-	8g	4ee-
.	8A-	8f	.
.	8B-	8g	8.e-
.	8G	8e-	.
.	.	.	16g
=51	=51	=51	=51
4BB-	8F	8d	8b-
.	8G	8e-	8b-
2r	8A-	8f	8b-
.	8G	8e-	8b-
.	8A-	8f	8b-
.	8F	8d	8b-
=52	=52	=52	=52
4EE-	8G	8e-	8.b-
.	8A-	8f	.
.	.	.	32cc
.	.	.	32dd
4r	8B-	8g	4ee-
.	8G	8e-	.
4C	8G	8c	8.e-
.	8E-	8G	.
.	.	.	16g
=53	=53	=53	=53
4AA-	8A-	8c	8.f
.	8G	8B-	.
.	.	.	32a-
.	.	.	32b-
4r	8F	8A-	4cc
.	8E-	8G	.
4BB-	8F	8A-	8.d
.	8D	8A-	.
.	.	.	16f
=54	=54	=54	=54
[2.EE-	8E-	4G	4.e-
.	8B-	.	.
.	8G	2r	.
.	8D	.	8f
.	8E-	.	8g
.	8F	.	8a-
=55	=55	=55	=55
2.EE-_	[2.G [2.E-	[2.e- [2.G	8b-
.	.	.	8ee-
.	.	.	8b-
.	.	.	8a-
.	.	.	8g
.	.	.	8a-
=56	=56	=56	=56
2.EE-_	2.G_ 2.E-_	2.e-_ 2.G_	8b-
.	.	.	8ee-
.	.	.	8b-
.	.	.	8a-
.	.	.	8g
.	.	.	8a-
=57	=57	=57	=57
2.EE-_	2.G_ 2.E-_	2.e-_ 2.G_	8b-
.	.	.	8ee-
.	.	.	8b-
.	.	.	8a-
.	.	.	8g
.	.	.	8a-
=58	=58	=58	=58
4EE-]	4G] 4E-]	4e-] 4G]	8b-
.	.	.	8ee-
4r	4r	8g	8ee-
.	.	8b-	8dd
4E-	4e-	8a-	8cc
.	.	8g	8b-
=59	=59	=59	=59
4AA-	4c	8g	8b-
.	.	8f	8a-
4BB-	4B-	4e-	4g
4BB-	4A-	4d	4f
=60	=60	=60	=60
2.EE-	4G	4.e-	8e-
.	.	.	8b-
.	4.r	.	8ee-
.	.	8B-	8ff
.	.	8e-	8gg
.	8B-	8f	8aa-
=61	=61	=61	=61
2.EE-	8E-	8g	8bb-
.	8F	8a-	8eee-
.	8G	8b-	8bb-
.	8A-	8ee-	8aa-
.	8B-	8b-	8gg
.	8e-	8a-	8aa-
=62	=62	=62	=62
2.EE-	8B-	8g	8bb-
.	8A-	8a-	8eee-
.	8G	8b-	8bb-
.	8A-	8ee-	8aa-
.	8B-	8b-	8gg
.	8e-	8a-	8aa-
=63	=63	=63	=63
2.EE-	8B-	8g	8bb-
.	8A-	8a-	8eee-
.	8G	8b-	8bb-
.	8A-	8ee-	8aa-
.	8B-	8b-	8gg
.	8e-	8a-	8aa-
=64	=64	=64	=64
2EE-	8B-	8g	8bb-
.	8g	8b-	8eee-
.	8g	8ee-	8eee-
.	8b-	8dd	8ddd
4E-	8a-	8cc	8ccc
.	8g	8b-	8bb-
=65	=65	=65	=65
4A-	8g	8b-	8bb-
.	8f	8a-	8aa-
4B-	4e-	4g	4gg
4BB-	4d	4f	4ff
=66	=66	=66	=66
4E-	4e-	4e-	8ff
.	.	.	8ee-
4r	4r	4r	8ee-
.	.	.	8ee-
4G	4g	4b-	8ee-
.	.	.	8ee-
=67	=67	=67	=67
4A-	4f	4cc	8ee-
.	.	.	8ff
4r	4r	4r	8ff
.	.	.	8ff
4B-	4a-	4dd	8ff
.	.	.	8gg
=68	=68	=68	=68
4c	8g	8ee-	8ff
.	8G	8e-	8ee-
4r	8G	8e-	4ee-
.	8G	8e-	.
4C	8G	8e-	4r
.	8G	8e-	.
=69	=69	=69	=69
4BB-	8G	8e-	2.r
.	8B-	8f	.
4r	8B-	8f	.
.	8B-	8f	.
4BB-	8B-	8f	.
.	8B-	8g	.
=70	=70	=70	=70
4EE-	4G	4e-	2r
4E-	2r	2r	.
4r	.	.	8.ee-
.	.	.	16ff
=71	=71	=71	=71
2.r	2.r	2.r	4gg
.	.	.	4ee-
.	.	.	4dd
=72	=72	=72	=72
[2.CC	2.e-	2.g	4.cc
.	.	.	8ee-
.	.	.	8cc
.	.	.	8ee-
=73	=73	=73	=73
2.CC_	2.f	2.a-	8dd
.	.	.	8ff
.	.	.	8dd
.	.	.	8ff
.	.	.	8b
.	.	.	8dd
=74	=74	=74	=74
2.CC_	2.e-	2.g	8cc
.	.	.	8ee-
.	.	.	8gg
.	.	.	8ff#
.	.	.	8ff
.	.	.	8ee-
=75	=75	=75	=75
2.CC]	2.f	2.a-	8dd
.	.	.	8ff
.	.	.	8aa-
.	.	.	8ff
.	.	.	8dd
.	.	.	8b
=76	=76	=76	=76
[2C	[2.e-	[2.g	8cc
.	.	.	8gg
.	.	.	8ff#
.	.	.	8ff
8C]	.	.	8ee-
8D	.	.	8dd
=77	=77	=77	=77
4E-	4e-]	4g]	8dd
.	.	.	8cc
4F	4d	4f	8cc
.	.	.	8b-
4FF	4c	4e-	8b-
.	.	.	8a
=78	=78	=78	=78
2BB-	2.B-	2d	8.gg
.	.	.	16ff
.	.	.	4ff
4D	.	4f	8ee-
.	.	.	8dd
=79	=79	=79	=79
4E-	4G	4g	8dd
.	.	.	8cc
4r	4r	4r	8ee-
.	.	.	8cc
4F	4c	4e-	8b-
.	.	.	8a
=80	=80	=80	=80
[2.BB-	8d	4.b-	4b-
.	8f	.	.
.	8d	.	2r
.	8f	8dd	.
.	8d	8b-	.
.	8f	8dd	.
=81	=81	=81	=81
2.BB-_	8e-	8cc	2aa
.	8g-	8ee-	.
.	8e-	8cc	.
.	8g-	8ee-	.
.	8c	8a	8ccc
.	8e-	8cc	8aa
=82	=82	=82	=82
2.BB-_	8d	8b-	2.bb-
.	8f	8dd	.
.	8d	8ff	.
.	8f	8ee	.
.	8B-	8ee-	.
.	8f	8dd	.
=83	=83	=83	=83
2.BB-_	8e-	8cc	8aa
.	8f	8dd	8bb-
.	8g-	8ee-	8ccc
.	8e-	8cc	8aa
.	8c	8cc	8eee-
.	8e-	8a	8ccc
=84	=84	=84	=84
4BB-]	4d	4b-	4bb-
2r	2r	4r	2r
.	.	8.b-	.
.	.	16cc	.
=85	=85	=85	=85
2.r	2.r	4dd	2.r
.	.	4b-	.
.	.	4a	.
=86	=86	=86	=86
[2.GG	2.B-	4.g	2.d
.	.	8b-	.
.	.	8g	.
.	.	8b-	.
=87	=87	=87	=87
2.GG_	2.c	8a	2.e-
.	.	8cc	.
.	.	8a	.
.	.	8cc	.
.	.	8f#	.
.	.	8a	.
=88	=88	=88	=88
2.GG_	2.B-	8g	2.d
.	.	8b-	.
.	.	8dd	.
.	.	8cc#	.
.	.	8cc	.
.	.	8b-	.
=89	=89	=89	=89
2.GG_	2.c	8a	2.e-
.	.	8cc	.
.	.	8ee-	.
.	.	8cc	.
.	.	8a	.
.	.	8f#	.
=90	=90	=90	=90
4GG]	8B-	4g	4d
.	8dd	.	.
2r	8cc#	2r	2r
.	8cc	.	.
.	8b-	.	.
.	8a	.	.
=91	=91	=91	=91
2r	8a	4B-	4d
.	8g	.	.
.	8g	4A	4c
.	8f	.	.
4C	8f	4G	4B-
.	8e	.	.
=92	=92	=92	=92
[2.FF	4.f	2.A	2.c
.	8a	.	.
.	8f	.	.
.	8a	.	.
=93	=93	=93	=93
2.FF_	8g	2.B-	2.d-
.	8b-	.	.
.	8g	.	.
.	8b-	.	.
.	8e	.	.
.	8g	.	.
=94	=94	=94	=94
2.FF_	8f	8A	4.ff
.	8a	8c	.
.	8cc	8A	.
.	8b	8c	8aa
.	8b-	8f	8ff
.	8a	8c	8aa
=95	=95	=95	=95
2.FF]	8b-	8e	8gg
.	8cc	8g	8bb-
.	8dd-	8e	8gg
.	8b-	8g	8bb-
.	8g	8d-	8ee
.	8e	8B-	8gg
=96	=96	=96	=96
4.F	8f	4A	8ff
.	8c	.	8aa
.	8A	2r	8ccc
8A	8c	.	8bb
8F	8f	.	8bb-
8A	8c	.	8aa
=97	=97	=97	=97
8G	8e	2.r	8bb-
8B-	8g	.	8ccc
8G	8e	.	8ddd-
8B-	8g	.	8bb-
8E	8d-	.	8gg
8G	8B-	.	8ee
=98	=98	=98	=98
8F	8A	[2.f	[2ff
8c	8f	.	.
8e-	8a	.	.
8d	8b-	.	.
8c	8cc	.	8ff]
8B-	8dd	.	8gg
=99	=99	=99	=99
8A	8cc	2.f_	8aa
8G	8b-	.	8bb-
8F	8a	.	8ccc
8E-	8g	.	8ddd
8D	8f	.	8eee-
8C	8e-	.	8aa
=100	=100	=100	=100
[2.BB-	8d	4.f]	4.bb-
.	8B-	.	.
.	8B-	.	.
.	8F	8d	8ddd
.	8D	8B-	8bb-
.	8F	8d	8ddd
=101	=101	=101	=101
2.BB-_	8E-	8c	8ccc
.	8F	8e-	8eee-
.	8E-	8c	8ccc
.	8F	8e-	8eee-
.	8E-	8A	8aa
.	8F	8c	8ccc
=102	=102	=102	=102
2.BB-_	8D	8B-	8bb-
.	8F	8d	8ddd
.	8D	8f	8fff
.	8F	8e	8eee
.	8D	8e-	8eee-
.	8F	8d	8ddd
=103	=103	=103	=103
2.BB-_	8E-	8c	8ccc
.	8F	8d	8ddd
.	8E-	8e-	8eee-
.	8F	8c	8ccc
.	8E-	8A	8aa
.	8F	8c	8ccc
=104	=104	=104	=104
4BB-]	4D	4B-	4bb-
2r	2r	2r	2r
==	==	==	==
*-	*-	*-	*-
!!!RWG1: This file contains only pitch and duration data.
!!!RWG2: Transposing instruments are not transposed.
!!!RWG3: Spines may have incompatible meters.
!!!RWG4: Durations of rests and tied notes may be interpreted.
!!!RWG: Key is interpreted using the Humdrum key tool.
!!!AFT: stage1
!!!END: 1997/04/15
!!!KEY: 3086394260
!!!EMD: Converted from MuseData to Humdrum Dec 16, 2000, by Andreas Kornstaedt using muse2kern.
!!!EMD: Manual editing by Craig Sapp, Nov 2001
